X:1
T:Title
%%score ( 1 2 ) { 3 | 4 }
L:1/8
Q:1/4=125
M:3/4
K:Db
V:1 treble nm="Grand Piano, Soprano"
V:2 treble 
V:3 treble nm="Choir Pad, Guarulhos, H. Glmour, 1882"
V:4 bass 
V:1
 [Fd]2 [Ac]2 [GB]2 | [FA]4 [FA]2 | [GB]2 [FA]2 [EG]2 | [EG]2 [DF]2 z2 | [DB]2 [Gc]2 [Fd]2 | %5
w: By~Henry~Lake~Gilmour,~1882 * *|||||
 [EA]4 [DF]2 | B2 z2 z2 | [CE]4 z2 | A2 [=GB]2 [_Gc]2 | [Ge]2 [Fd]2 [E=G]2 | [EB]4 [Ec]2 | %11
w: ||||||
 [EB]2 [EA]2 z2 | [CA]2 [DB]2 [Ec]2 | [Dd]4 [DB][EG] | [DF]4 [CE]2 | D4 z2 | [CE]2 [DF]2 [EG]2 | %17
w: ||||||
 [Ac]4 [GB][FA] | [FA]4 [EG]2 | [EG]2 [DF]2 z2 | [FA]2 [GB]2 [Gc]2 | [Fd]4 [DF]2 | %22
w: |||||
 [DF]2 [EG]2 [DF]2 | [CE]6 | A2 [=GB]2 [_Gc]2 | [Ge]2 [Fd]2 [E=G]2 | [EB]4 [Ec]2 | [EB]2 [EA]2 z2 | %28
w: ||||||
 [CA]2 [DB]2 [Ec]2 | [Dd]4 [DB][EG] | [DF]4 [CE]2 | D6- | D2 z2 z2 |] %33
w: |||||
V:2
 x6 | x6 | x6 | x6 | x6 | x6 | D2- [DA]2 [DF]2 | x6 | x6 | x6 | x6 | x6 | x6 | x6 | x6 | x6 | x6 | %17
 x6 | x6 | x6 | x6 | x6 | x6 | x6 | x6 | x6 | x6 | x6 | x6 | x6 | x6 | x6 | x6 |] %33
V:3
 A,4 B,C | D4 D2 | D4 C2 | A,2 A,2 z2 | G,2 A,2 A,2 | A,4 A,2 | G,2 A,2 A,2 | A,4 z2 | C2 D2 E2 | %9
 C2 D2 B,2 | D4 E2 | D2 C2 z2 | A,4 A,2 | A,4 B,2 | A,4 G,2 | F,4 z2 | A,4 A,2 | A,4 A,2 | %18
 A,4 A,2 | A,2 A,2 z2 | D4 A,2 | A,4 A,2 | A,4 A,2 | A,6 | C2 D2 E2 | C2 D2 B,2 | D4 E2 | %27
 D2 C2 z2 | A,4 A,2 | A,4 B,2 | A,4 G,2 | F,6- | F,2 z2 z2 |] %33
V:4
 D,4 D,2 | D,4 D,2 | D,4 A,,2 | D,2 D,2 z2 | z2 E,2 D,2 | C,4 D,2 | z2 F,2 D,2 | A,,4 z2 | %8
 A,4 A,2 | =A,2 B,2 E,2 | =G,4 E,2 | A,2 A,2 z2 | G,4 G,2 | F,4 G,2 | z2 z2 A,,2 | D,4 z2 | %16
 A,,4 A,,2 | A,,4 A,,2 | A,,2 B,,2 C,2 | D,2 D,2 z2 | D,4 D,2 | D,4 D,2 | D,2 C,2 D,2 | A,,6 | %24
 A,4 A,2 | =A,2 B,2 E,2 | =G,4 E,2 | A,2 A,2 z2 | G,4 G,2 | F,4 G,2 | z2 z2 A,,2 | D,6- | %32
 D,2 z2 z2 |] %33

